48x48/apps/glrp.svg

<svg viewBox="0 0 48 48"><defs><linearGradient id="linearGradient3764" x1="1" x2="47" gradientUnits="userSpaceOnUse" gradientTransform="matrix(0,-1,1,0,-1.5e-6,47.999998)"><stop stop-color="#706789" stop-opacity="1"/><stop offset="1" stop-color="#797093" stop-opacity="1"/></linearGradient><clipPath id="clipPath-069136824"><g transform="translate(0,-1004.3622)"><path d="m -24 13 c 0 1.105 -0.672 2 -1.5 2 -0.828 0 -1.5 -0.895 -1.5 -2 0 -1.105 0.672 -2 1.5 -2 0.828 0 1.5 0.895 1.5 2 z" transform="matrix(15.333333,0,0,11.5,414.99999,878.8622)" fill="#1890d0"/></g></clipPath><clipPath id="clipPath-080643511"><g transform="translate(0,-1004.3622)"><path d="m -24 13 c 0 1.105 -0.672 2 -1.5 2 -0.828 0 -1.5 -0.895 -1.5 -2 0 -1.105 0.672 -2 1.5 -2 0.828 0 1.5 0.895 1.5 2 z" transform="matrix(15.333333,0,0,11.5,414.99999,878.8622)" fill="#1890d0"/></g></clipPath></defs><g><path d="m 36.31 5 c 5.859 4.062 9.688 10.831 9.688 18.5 c 0 12.426 -10.07 22.5 -22.5 22.5 c -7.669 0 -14.438 -3.828 -18.5 -9.688 c 1.037 1.822 2.306 3.499 3.781 4.969 c 4.085 3.712 9.514 5.969 15.469 5.969 c 12.703 0 23 -10.298 23 -23 c 0 -5.954 -2.256 -11.384 -5.969 -15.469 c -1.469 -1.475 -3.147 -2.744 -4.969 -3.781 z m 4.969 3.781 c 3.854 4.113 6.219 9.637 6.219 15.719 c 0 12.703 -10.297 23 -23 23 c -6.081 0 -11.606 -2.364 -15.719 -6.219 c 4.16 4.144 9.883 6.719 16.219 6.719 c 12.703 0 23 -10.298 23 -23 c 0 -6.335 -2.575 -12.06 -6.719 -16.219 z" opacity="0.05"/><path d="m 41.28 8.781 c 3.712 4.085 5.969 9.514 5.969 15.469 c 0 12.703 -10.297 23 -23 23 c -5.954 0 -11.384 -2.256 -15.469 -5.969 c 4.113 3.854 9.637 6.219 15.719 6.219 c 12.703 0 23 -10.298 23 -23 c 0 -6.081 -2.364 -11.606 -6.219 -15.719 z" opacity="0.1"/><path d="m 31.25 2.375 c 8.615 3.154 14.75 11.417 14.75 21.13 c 0 12.426 -10.07 22.5 -22.5 22.5 c -9.708 0 -17.971 -6.135 -21.12 -14.75 a 23 23 0 0 0 44.875 -7 a 23 23 0 0 0 -16 -21.875 z" opacity="0.2"/></g><g><path d="m 24 1 c 12.703 0 23 10.297 23 23 c 0 12.703 -10.297 23 -23 23 -12.703 0 -23 -10.297 -23 -23 0 -12.703 10.297 -23 23 -23 z" fill="url(#linearGradient3764)" fill-opacity="1"/></g><g/><g><g clip-path="url(#clipPath-069136824)"><g transform="translate(1,1)"><g opacity="0.1"><!-- color: #797093 --><g><path d="m 8.119 6.548 c 0.161 -0.261 0.255 -0.57 0.255 -0.898 c 0 -0.335 -0.097 -0.647 -0.262 -0.91" transform="matrix(3.543307,0,0,3.543307,0,0)" stroke-opacity="1" fill="#000" stroke="#f9f9f9" stroke-linejoin="miter" stroke-linecap="round" stroke-width="0.419" stroke-miterlimit="4"/><path d="m 8.698 4.146 c 0.308 0.42 0.487 0.939 0.487 1.504 c 0 0.558 -0.179 1.074 -0.482 1.492" transform="matrix(3.543307,0,0,3.543307,0,0)" stroke-opacity="1" fill="#000" stroke="#f9f9f9" stroke-linejoin="miter" stroke-linecap="round" stroke-width="0.419" stroke-miterlimit="4"/><path d="m 9.25 7.693 c 0.439 -0.562 0.7 -1.271 0.7 -2.043 c 0 -0.777 -0.268 -1.49 -0.711 -2.054" transform="matrix(3.543307,0,0,3.543307,0,0)" stroke-opacity="1" fill="#000" stroke="#f9f9f9" stroke-linejoin="miter" stroke-linecap="round" stroke-width="0.419" stroke-miterlimit="4"/><path d="m 5.428 6.548 c -0.161 -0.261 -0.257 -0.57 -0.257 -0.898 c 0 -0.335 0.097 -0.647 0.261 -0.91" transform="matrix(3.543307,0,0,3.543307,0,0)" stroke-opacity="1" fill="#000" stroke="#f9f9f9" stroke-linejoin="miter" stroke-linecap="round" stroke-width="0.419" stroke-miterlimit="4"/><path d="m 4.848 4.146 c -0.31 0.42 -0.489 0.939 -0.489 1.504 c 0 0.558 0.179 1.074 0.482 1.492" transform="matrix(3.543307,0,0,3.543307,0,0)" stroke-opacity="1" fill="#000" stroke="#f9f9f9" stroke-linejoin="miter" stroke-linecap="round" stroke-width="0.419" stroke-miterlimit="4"/><path d="m 4.297 7.693 c -0.439 -0.562 -0.701 -1.271 -0.701 -2.043 c 0 -0.777 0.266 -1.49 0.709 -2.054" transform="matrix(3.543307,0,0,3.543307,0,0)" stroke-opacity="1" fill="#000" stroke="#f9f9f9" stroke-linejoin="miter" stroke-linecap="round" stroke-width="0.419" stroke-miterlimit="4"/><path d="m 26 20 c 0 1.105 -0.895 2 -2 2 c -1.105 0 -2 -0.895 -2 -2 c 0 -1.105 0.895 -2 2 -2 c 1.105 0 2 0.895 2 2 m 0 0" fill="#000" stroke="none" fill-rule="nonzero" fill-opacity="1"/><path d="m 24 20 c 0.551 0 0.996 0.473 0.996 1.063 l 0 15.871 c 0 0.59 -0.445 1.066 -0.996 1.066 c -0.555 0 -1 -0.477 -1 -1.066 l 0 -15.871 c 0 -0.59 0.445 -1.063 1 -1.063 m 0 0" fill="#000" stroke="none" fill-rule="nonzero" fill-opacity="1"/></g></g></g></g></g><g><g clip-path="url(#clipPath-080643511)"><!-- color: #797093 --><g><path d="m 8.119 6.548 c 0.161 -0.261 0.255 -0.57 0.255 -0.898 c 0 -0.335 -0.097 -0.647 -0.262 -0.91" transform="matrix(3.543307,0,0,3.543307,0,0)" stroke-opacity="1" fill="none" stroke="#f9f9f9" stroke-linejoin="miter" stroke-linecap="round" stroke-width="0.419" stroke-miterlimit="4"/><path d="m 8.698 4.146 c 0.308 0.42 0.487 0.939 0.487 1.504 c 0 0.558 -0.179 1.074 -0.482 1.492" transform="matrix(3.543307,0,0,3.543307,0,0)" stroke-opacity="1" fill="none" stroke="#f9f9f9" stroke-linejoin="miter" stroke-linecap="round" stroke-width="0.419" stroke-miterlimit="4"/><path d="m 9.25 7.693 c 0.439 -0.562 0.7 -1.271 0.7 -2.043 c 0 -0.777 -0.268 -1.49 -0.711 -2.054" transform="matrix(3.543307,0,0,3.543307,0,0)" stroke-opacity="1" fill="none" stroke="#f9f9f9" stroke-linejoin="miter" stroke-linecap="round" stroke-width="0.419" stroke-miterlimit="4"/><path d="m 5.428 6.548 c -0.161 -0.261 -0.257 -0.57 -0.257 -0.898 c 0 -0.335 0.097 -0.647 0.261 -0.91" transform="matrix(3.543307,0,0,3.543307,0,0)" stroke-opacity="1" fill="none" stroke="#f9f9f9" stroke-linejoin="miter" stroke-linecap="round" stroke-width="0.419" stroke-miterlimit="4"/><path d="m 4.848 4.146 c -0.31 0.42 -0.489 0.939 -0.489 1.504 c 0 0.558 0.179 1.074 0.482 1.492" transform="matrix(3.543307,0,0,3.543307,0,0)" stroke-opacity="1" fill="none" stroke="#f9f9f9" stroke-linejoin="miter" stroke-linecap="round" stroke-width="0.419" stroke-miterlimit="4"/><path d="m 4.297 7.693 c -0.439 -0.562 -0.701 -1.271 -0.701 -2.043 c 0 -0.777 0.266 -1.49 0.709 -2.054" transform="matrix(3.543307,0,0,3.543307,0,0)" stroke-opacity="1" fill="none" stroke="#f9f9f9" stroke-linejoin="miter" stroke-linecap="round" stroke-width="0.419" stroke-miterlimit="4"/><path d="m 26 20 c 0 1.105 -0.895 2 -2 2 c -1.105 0 -2 -0.895 -2 -2 c 0 -1.105 0.895 -2 2 -2 c 1.105 0 2 0.895 2 2 m 0 0" fill="#f9f9f9" stroke="none" fill-rule="nonzero" fill-opacity="1"/><path d="m 24 20 c 0.551 0 0.996 0.473 0.996 1.063 l 0 15.871 c 0 0.59 -0.445 1.066 -0.996 1.066 c -0.555 0 -1 -0.477 -1 -1.066 l 0 -15.871 c 0 -0.59 0.445 -1.063 1 -1.063 m 0 0" fill="#f9f9f9" stroke="none" fill-rule="nonzero" fill-opacity="1"/></g></g></g><g><path d="m 40.03 7.531 c 3.712 4.084 5.969 9.514 5.969 15.469 0 12.703 -10.297 23 -23 23 c -5.954 0 -11.384 -2.256 -15.469 -5.969 4.178 4.291 10.01 6.969 16.469 6.969 c 12.703 0 23 -10.298 23 -23 0 -6.462 -2.677 -12.291 -6.969 -16.469 z" opacity="0.1"/></g></svg>

<?xml version="1.0" encoding="UTF-8" standalone="no"?>
<svg
   xmlns:dc="http://purl.org/dc/elements/1.1/"
   xmlns:cc="http://creativecommons.org/ns#"
   xmlns:rdf="http://www.w3.org/1999/02/22-rdf-syntax-ns#"
   xmlns:svg="http://www.w3.org/2000/svg"
   xmlns="http://www.w3.org/2000/svg"
   xmlns:sodipodi="http://sodipodi.sourceforge.net/DTD/sodipodi-0.dtd"
   xmlns:inkscape="http://www.inkscape.org/namespaces/inkscape"
   viewBox="0 0 48 48"
   id="svg2"
   version="1.1"
   inkscape:version="0.48.4 r9939"
   width="100%"
   height="100%"
   sodipodi:docname="glrp.svg">
  <metadata
     id="metadata89">
    <rdf:RDF>
      <cc:Work
         rdf:about="">
        <dc:format>image/svg+xml</dc:format>
        <dc:type
           rdf:resource="http://purl.org/dc/dcmitype/StillImage" />
      </cc:Work>
    </rdf:RDF>
  </metadata>
  <sodipodi:namedview
     pagecolor="#ffffff"
     bordercolor="#666666"
     borderopacity="1"
     objecttolerance="10"
     gridtolerance="10"
     guidetolerance="10"
     inkscape:pageopacity="0"
     inkscape:pageshadow="2"
     inkscape:window-width="1375"
     inkscape:window-height="876"
     id="namedview87"
     showgrid="false"
     inkscape:zoom="4.9166667"
     inkscape:cx="-12"
     inkscape:cy="24"
     inkscape:window-x="65"
     inkscape:window-y="24"
     inkscape:window-maximized="1"
     inkscape:current-layer="svg2" />
  <defs
     id="defs4">
    <linearGradient
       id="linearGradient3764"
       x1="1"
       x2="47"
       gradientUnits="userSpaceOnUse"
       gradientTransform="matrix(0,-1,1,0,-1.5e-6,47.999998)">
      <stop
         stop-color="#706789"
         stop-opacity="1"
         id="stop7" />
      <stop
         offset="1"
         stop-color="#797093"
         stop-opacity="1"
         id="stop9" />
    </linearGradient>
    <clipPath
       id="clipPath-069136824">
      <g
         transform="translate(0,-1004.3622)"
         id="g12">
        <path
           d="m -24 13 c 0 1.105 -0.672 2 -1.5 2 -0.828 0 -1.5 -0.895 -1.5 -2 0 -1.105 0.672 -2 1.5 -2 0.828 0 1.5 0.895 1.5 2 z"
           transform="matrix(15.333333,0,0,11.5,414.99999,878.8622)"
           fill="#1890d0"
           id="path14" />
      </g>
    </clipPath>
    <clipPath
       id="clipPath-080643511">
      <g
         transform="translate(0,-1004.3622)"
         id="g17">
        <path
           d="m -24 13 c 0 1.105 -0.672 2 -1.5 2 -0.828 0 -1.5 -0.895 -1.5 -2 0 -1.105 0.672 -2 1.5 -2 0.828 0 1.5 0.895 1.5 2 z"
           transform="matrix(15.333333,0,0,11.5,414.99999,878.8622)"
           fill="#1890d0"
           id="path19" />
      </g>
    </clipPath>
    <linearGradient
       id="linearGradient3764-2"
       x1="1"
       x2="47"
       gradientUnits="userSpaceOnUse"
       gradientTransform="matrix(0,-1,1,0,-1.5e-6,47.999998)">
      <stop
         stop-color="#b5945b"
         stop-opacity="1"
         id="stop7-2" />
      <stop
         offset="1"
         stop-color="#bb9e69"
         stop-opacity="1"
         id="stop9-1" />
    </linearGradient>
    <clipPath
       id="clipPath-899834956">
      <g
         transform="translate(0,-1004.3622)"
         id="g12-4">
        <path
           d="m -24 13 c 0 1.105 -0.672 2 -1.5 2 -0.828 0 -1.5 -0.895 -1.5 -2 0 -1.105 0.672 -2 1.5 -2 0.828 0 1.5 0.895 1.5 2 z"
           transform="matrix(15.333333,0,0,11.5,414.99999,878.8622)"
           fill="#1890d0"
           id="path14-8" />
      </g>
    </clipPath>
    <clipPath
       id="clipPath-909443126">
      <g
         transform="translate(0,-1004.3622)"
         id="g17-1">
        <path
           d="m -24 13 c 0 1.105 -0.672 2 -1.5 2 -0.828 0 -1.5 -0.895 -1.5 -2 0 -1.105 0.672 -2 1.5 -2 0.828 0 1.5 0.895 1.5 2 z"
           transform="matrix(15.333333,0,0,11.5,414.99999,878.8622)"
           fill="#1890d0"
           id="path19-4" />
      </g>
    </clipPath>
    <clipPath
       id="clipPath-909443126-7">
      <g
         transform="translate(0,-1004.3622)"
         id="g17-2">
        <path
           style="fill:#1890d0"
           inkscape:connector-curvature="0"
           d="m -24,13 c 0,1.105 -0.672,2 -1.5,2 -0.828,0 -1.5,-0.895 -1.5,-2 0,-1.105 0.672,-2 1.5,-2 0.828,0 1.5,0.895 1.5,2 z"
           transform="matrix(15.333333,0,0,11.5,414.99999,878.8622)"
           id="path19-3" />
      </g>
    </clipPath>
    <linearGradient
       id="linearGradient3759">
      <stop
         id="stop3761"
         offset="0"
         style="stop-color:#a75e15;stop-opacity:1;" />
      <stop
         id="stop3763"
         offset="1"
         style="stop-color:#ffffff;stop-opacity:0;" />
    </linearGradient>
    <linearGradient
       id="linearGradient3777">
      <stop
         id="stop3779"
         offset="0"
         style="stop-color:#e0dd00;stop-opacity:1;" />
      <stop
         id="stop3781"
         offset="1"
         style="stop-color:#000000;stop-opacity:0;" />
    </linearGradient>
    <clipPath
       id="clipPath-080643511-7">
      <g
         transform="translate(0,-1004.3622)"
         id="g17-5">
        <path
           style="fill:#1890d0"
           inkscape:connector-curvature="0"
           d="m -24,13 c 0,1.105 -0.672,2 -1.5,2 -0.828,0 -1.5,-0.895 -1.5,-2 0,-1.105 0.672,-2 1.5,-2 0.828,0 1.5,0.895 1.5,2 z"
           transform="matrix(15.333333,0,0,11.5,414.99999,878.8622)"
           id="path19-8" />
      </g>
    </clipPath>
  </defs>
  <g
     id="g33" />
  <g
     id="g3113">
    <g
       inkscape:label="shadows"
       id="layer2">
      <rect
         ry="13.03658"
         rx="13.03658"
         y="1"
         x="1"
         height="46"
         width="46"
         id="rect3007"
         style="opacity:0.1;fill:#000000;fill-opacity:1;fill-rule:nonzero;stroke:none" />
      <rect
         style="opacity:0.1;fill:#000000;fill-opacity:1;fill-rule:nonzero;stroke:none"
         id="rect3011"
         width="47"
         height="47"
         x="0.5"
         y="0.5"
         rx="13.319984"
         ry="13.319984" />
      <rect
         style="opacity:0.1;fill:#000000;fill-opacity:1;fill-rule:nonzero;stroke:none"
         id="rect3013"
         width="46.5"
         height="46.5"
         x="0.75"
         y="0.75"
         rx="13.178282"
         ry="13.178282" />
    </g>
    <g
       style="display:inline"
       inkscape:label="background-color"
       id="layer1">
      <rect
         transform="matrix(0,-1,1,0,0,0)"
         ry="12.753176"
         rx="12.753176"
         y="1.5"
         x="-46.5"
         height="45"
         width="45"
         id="rect2988"
         style="fill:#706789;fill-opacity:1;fill-rule:nonzero;stroke:none" />
    </g>
  </g>
  <g
     transform="translate(0.00118169,-0.99970458)"
     id="g61-2">
    <g
       clip-path="url(#clipPath-080643511-7)"
       id="g63-2">
      <!-- color: #797093 -->
      <g
         id="g65-9">
        <path
           style="fill:none;stroke:#f9f9f9;stroke-width:0.419;stroke-linecap:round;stroke-linejoin:miter;stroke-miterlimit:4;stroke-opacity:1"
           inkscape:connector-curvature="0"
           d="M 8.119,6.548 C 8.28,6.287 8.374,5.978 8.374,5.65 8.374,5.315 8.277,5.003 8.112,4.74"
           transform="scale(3.543307,3.543307)"
           stroke-miterlimit="4"
           id="path67-0" />
        <path
           style="fill:none;stroke:#f9f9f9;stroke-width:0.419;stroke-linecap:round;stroke-linejoin:miter;stroke-miterlimit:4;stroke-opacity:1"
           inkscape:connector-curvature="0"
           d="m 8.698,4.146 c 0.308,0.42 0.487,0.939 0.487,1.504 0,0.558 -0.179,1.074 -0.482,1.492"
           transform="scale(3.543307,3.543307)"
           stroke-miterlimit="4"
           id="path69-7" />
        <path
           style="fill:none;stroke:#f9f9f9;stroke-width:0.419;stroke-linecap:round;stroke-linejoin:miter;stroke-miterlimit:4;stroke-opacity:1"
           inkscape:connector-curvature="0"
           d="M 9.25,7.693 C 9.689,7.131 9.95,6.422 9.95,5.65 9.95,4.873 9.682,4.16 9.239,3.596"
           transform="scale(3.543307,3.543307)"
           stroke-miterlimit="4"
           id="path71-9" />
        <path
           style="fill:none;stroke:#f9f9f9;stroke-width:0.419;stroke-linecap:round;stroke-linejoin:miter;stroke-miterlimit:4;stroke-opacity:1"
           inkscape:connector-curvature="0"
           d="M 5.428,6.548 C 5.267,6.287 5.171,5.978 5.171,5.65 5.171,5.315 5.268,5.003 5.432,4.74"
           transform="scale(3.543307,3.543307)"
           stroke-miterlimit="4"
           id="path73-3" />
        <path
           style="fill:none;stroke:#f9f9f9;stroke-width:0.419;stroke-linecap:round;stroke-linejoin:miter;stroke-miterlimit:4;stroke-opacity:1"
           inkscape:connector-curvature="0"
           d="m 4.848,4.146 c -0.31,0.42 -0.489,0.939 -0.489,1.504 0,0.558 0.179,1.074 0.482,1.492"
           transform="scale(3.543307,3.543307)"
           stroke-miterlimit="4"
           id="path75-2" />
        <path
           style="fill:none;stroke:#f9f9f9;stroke-width:0.419;stroke-linecap:round;stroke-linejoin:miter;stroke-miterlimit:4;stroke-opacity:1"
           inkscape:connector-curvature="0"
           d="M 4.297,7.693 C 3.858,7.131 3.596,6.422 3.596,5.65 3.596,4.873 3.862,4.16 4.305,3.596"
           transform="scale(3.543307,3.543307)"
           stroke-miterlimit="4"
           id="path77-4" />
        <path
           style="fill:#f9f9f9;fill-opacity:1;fill-rule:nonzero;stroke:none"
           inkscape:connector-curvature="0"
           d="m 26,20 c 0,1.105 -0.895,2 -2,2 -1.105,0 -2,-0.895 -2,-2 0,-1.105 0.895,-2 2,-2 1.105,0 2,0.895 2,2 m 0,0"
           id="path79-5" />
        <path
           style="fill:#f9f9f9;fill-opacity:1;fill-rule:nonzero;stroke:none"
           inkscape:connector-curvature="0"
           d="m 24,20 c 0.551,0 0.996,0.473 0.996,1.063 l 0,15.871 C 24.996,37.524 24.551,38 24,38 23.445,38 23,37.523 23,36.934 L 23,21.063 C 23,20.473 23.445,20 24,20 m 0,0"
           id="path81-2" />
      </g>
    </g>
  </g>
</svg>
